!!!SOCIAL_FUNCTION:	miscellaneous songs
!!!PDT:	1956
!!!OTL: No_232_Song_Concerning_the_Removal_of_the_Seminole_to_Oklahoma_(a).krn
!!!LANG: Non-Tone
!!!LING_GROUP: Muskogean
!!!REG: Florida
**kern
*staff1
=1-
*clefF4
*k[f#c#g#d#a#]
*M3/4
4.r
8g#\
4f#\
=2!|:
4.f#\
8e\
8c#\L
8B\J
=3
4.c#\
8f#\
4e\
=4
4.c#\
8B\
4B\
=5
4.c#\
8c#\
8B\L
8F#\J
=6
4.B\
8G#\
4G#\
=7
2G#\
8r
8g#\
=8||
*M2/4
4f#\
(16d#\LL
16c#\J)
8B\J
=9||
*M3/4
4.c#\
8g#\
4f#\
=10!|:
4.f#\
8g#\
8f#\L
8e\J
=11||
*M4/4
[2f#\
8.f#\L]
16f#\Jk
4e\
=12||
*M3/4
4.c#\
8B\
4B\
=13
2B\
4r
=14
4.G#\
8F#\
8G#\L
8F#\J
=15
4.G#\
8G#\
4B\
=16
4B\
4d#\
8c#\L
8B\J
=17
4.c#\
8e\
8e\L
8d#\J
=18
2c#\
4r
=19||
*M4/4
[2c#\
8.c#\L]
16c#\Jk
4B\
=20||
*M3/4
4.B\
8G#\
4G#\
=21
4G#\
8r
8g#\
4f#\
=22
4.f#\
8d#\
8c#\L
8B\J
=23
4.c#\
8c#\
4B\
=24||
*M2/4
4B\
4r
=25
8.r
16G#\
8.G#\L
16G#\Jk
=26
8.B\L
16B\Jk
8.B\L
16B\Jk
=27
8.B\L
16f#\Jk
8f#\L
8d#\J
=28||
*M3/4
4.c#\
8B\
4B\
=29||
*M2/4
4.c#\
8c#\
=30
4B\
4r
=31
8B\L
8G#\J
4G#\
=32||
*M3/4
4G#\
8r
8g#\
4f#\
=33
4.f#\
8g#\
8f#\L
8e\J
=34||
*M4/4
4f#\
4r
8f#\
4.e\
=35||
*M3/4
4.c#\
8B\
8B\L
8G#\J
=36
2B\
4r
=37
4.G#\
8G#\
4G#\
=38
2G#\
8.B\L
16B\Jk
=39
4.B\
8f#\
8f#\L
8d#\J
=40
4.c#\
8c#\
8B\L
8G#\J
=41
2B\
8r
8G#\
=42
2G#\
4f#\
=43:|!
2G#\
4r
==
*-
